svgs/morphe.svg

<svg width="192" height="192" viewBox="0 0 192 192" fill="none" xmlns="http://www.w3.org/2000/svg">
<path d="M136 86.5V144C136 153.389 143.611 161 153 161C162.389 161 170 153.389 170 144V51.116C170 40.0062 160.994 31 149.884 31C143.651 31 137.769 33.8898 133.96 38.8241L103.124 78.7708C99.5214 83.4382 92.4786 83.4382 88.8757 78.7708L58.0396 38.8241C54.2307 33.8898 48.3494 31 42.116 31C31.0062 31 22 40.0062 22 51.116V144C22 153.389 29.6112 161 39 161C48.3888 161 56 153.389 56 144V86.5L76.5903 114.812C86.1747 127.99 105.825 127.99 115.41 114.812L136 86.5ZM136 86.5C136 86.5 155 58.5 167 59.5" stroke="black" stroke-width="12" stroke-linecap="round" stroke-linejoin="round"/>
</svg>

<svg xmlns="http://www.w3.org/2000/svg" width="192" height="192" fill="none" viewBox="0 0 192 192"><path stroke="#000" stroke-linecap="round" stroke-linejoin="round" stroke-width="12" d="M136 86.5V144c0 9.389 7.611 17 17 17s17-7.611 17-17V51.116C170 40.006 160.994 31 149.884 31a20.12 20.12 0 0 0-15.924 7.824l-30.836 39.947c-3.603 4.667-10.645 4.667-14.248 0L58.04 38.824A20.12 20.12 0 0 0 42.116 31C31.006 31 22 40.006 22 51.116V144c0 9.389 7.611 17 17 17s17-7.611 17-17V86.5l20.59 28.312c9.585 13.178 29.235 13.178 38.82 0zm0 0s19-28 31-27"/></svg>
